X:3483
T:Cottage in the Grove
R:Reel
Z:Added by Alf Warnock
M:4/4
L:1/8
K:D
F|:EDB,A, B,EFA|B2eB dBAF|D2DF EEDB,|A,B,DF EDB,D|
E2EE DEFA|B2eB dBAF|DEFA ^AB=AF|DEFD EEEz:|
|:Bee2 fedA|eAfe dBAF|A2AB d2fd|edef ddBA|
Bee2 fedA|eAfe dBAF|DEFA ^AB=AF|DEFD EEE2:|


